X: 16344
T: Guiseppe's
R: jig
M: 6/8
K: Dmajor
|:dec dcA|GAE EFD|dec df/g/a|gec ABc|
dec dcA|GAE EFD|dec df/g/a|1 gec d3:|2 gec def||
e3 edc|dff fed|g3 gfe|edc AB/c/d|
e3 edc|dff fed|g3 gfe|edc def|
e3 edc|dff fed|dgg gfe|daa afd|
fga bdA|efg afd|gab afd|e/f/gf edc||

